packages/icons-svg/mask-close.svg

<?xml version="1.0" standalone="no"?><!DOCTYPE svg PUBLIC "-//W3C//DTD SVG 1.1//EN" "http://www.w3.org/Graphics/SVG/1.1/DTD/svg11.dtd"><svg class="icon" width="200px" height="200.00px" viewBox="0 0 1024 1024" version="1.1" xmlns="http://www.w3.org/2000/svg"><path fill="#333333" d="M512 14.8973037C238.59351703 14.8973037 14.8973037 238.59351703 14.8973037 512s223.69621333 497.1026963 497.1026963 497.1026963 497.1026963-223.69621333 497.1026963-497.1026963S785.40648297 14.8973037 512 14.8973037zM719.12612347 661.13080889c16.57008987 16.57008987 16.57008987 41.42522469 0 57.99531458s-41.42522469 16.57008987-57.99531458 0L512 569.99531457l-149.13080889 149.1308089c-16.57008987 16.57008987-41.42522469 16.57008987-57.99531458 0s-16.57008987-41.42522469 0-57.99531458L454.00468543 512 304.87387653 362.86919111C288.30378667 346.29910124 288.30378667 321.44396642 304.87387653 304.87387653s41.42522469-16.57008987 57.99531458 0L512 454.00468543l149.13080889-149.1308089c16.57008987-16.57008987 41.42522469-16.57008987 57.99531458 0s16.57008987 41.42522469 0 57.99531458L569.99531457 512 719.12612347 661.13080889z" /></svg>

<svg xmlns="http://www.w3.org/2000/svg" viewBox="0 0 1024 1024"><path fill="#333" d="M512 14.9c-273.41 0-497.1 223.7-497.1 497.1s223.7 497.1 497.1 497.1 497.1-223.7 497.1-497.1-223.7-497.1-497.1-497.1z m207.13 646.23c16.57 16.57 16.57 41.42 0 58s-41.42 16.57-58 0l-149.13-149.13-149.13 149.13c-16.57 16.57-41.43 16.57-58 0s-16.57-41.42 0-58l149.13-149.13-149.13-149.13c-16.57-16.57-16.57-41.43 0-58s41.42-16.57 58 0l149.13 149.13 149.13-149.13c16.57-16.57 41.43-16.57 58 0s16.57 41.42 0 58l-149.13 149.13 149.13 149.13z"/></svg>
